public/logos/cxo-logo.svg

<svg version="1.2" xmlns="http://www.w3.org/2000/svg" viewBox="0 0 600 250" width="600" height="250">
	<defs>
		<linearGradient id="g1" x2="1" gradientUnits="userSpaceOnUse" gradientTransform="matrix(120,-120.571,94.261,93.815,55.631,192.539)">
			<stop offset="0" stop-color="#540d6e"/>
			<stop offset="1" stop-color="#080357"/>
		</linearGradient>
	</defs>
	<style>
		.s0 { fill: #808080 } 
		.s1 { fill: url(#g1) } 
	</style>
	<g>
		<g>
			<path class="s0" d="m306 172.9c27.5 0 46.3-11.7 59.2-29.3l-29.9-24.5c-7 9-15.1 14-25.1 14-11.4 0-20.3-8.2-20.3-23 0-18.4 12.5-36.8 31.9-36.8 9.8 0 17.4 5.3 20.1 16.3l38.6-17.4c-5.4-23.8-25.1-39.1-53-39.1-55.7 0-82.9 44.4-82.9 81.1 0.1 35.9 25.2 58.7 61.4 58.7z"/>
			<path class="s0" d="m361.5 172.9h48.5l-14.5-39.8z"/>
			<path class="s0" d="m397.1 33l12.5 36.2 29-36.2z"/>
			<path class="s0" d="m502.3 33c-2.9 0-5.8 0.2-8.7 0.5l-26.3 28.1-38.1 40.7 26.9 63 2.5 5.9h11.2l-0.5-0.9c6.7 1.8 13.6 2.6 20.6 2.6 45.2 0 79.2-37.3 79.2-78.9 0-34.5-27.2-61-66.8-61zm-9.3 100.3c-16.1 0-24.8-11.1-24.8-25.4 0-16.9 12.1-35.4 30.9-35.4 16.1 0 24.8 11.2 24.8 25.4 0.1 17-12 35.4-30.9 35.4z"/>
		</g>
		<g>
			<path class="s0" d="m207 213.4v-5.1c0-4 1-5.4 8.7-6.5 5-0.7 5.8-1.7 5.8-4.3v-0.1c0-2.7-1-3.7-5.3-3.7-4.1 0-5.3 1-5.3 3.6v0.9l-3.8-0.1v-0.6c-0.1-5.2 1.9-7.2 9.1-7.2 7.1 0 9.2 1.8 9.2 7v0.1c0 4.9-1.6 6.6-8.9 7.6-5.1 0.7-5.7 1.3-5.7 3.5v1.5h8.5c2.5 0 4.8 0 6.1 0v3.3h-18.4z"/>
			<path class="s0" d="m238.5 209.1v4.3h-4.5v-4.3z"/>
			<path class="s0" d="m246.3 202.7v-1c0-8.6 2.7-11.2 10.3-11.2 7.7 0 10.3 2.6 10.3 11.2v1c0 8.6-2.7 11.2-10.3 11.2-7.6 0-10.3-2.6-10.3-11.2zm16.7-0.4v-0.3c0-6.3-1.5-8.1-6.4-8.1-4.9 0-6.4 1.8-6.4 8.1v0.3c0 6.5 1.5 8.1 6.4 8.1 5 0 6.4-1.6 6.4-8.1z"/>
			<path class="s0" d="m288.6 202.7v-1c0-8.6 2.7-11.2 10.6-11.2 7.9 0 10.5 2.2 10.5 9l-3.8 0.1c0-4.3-1.2-5.5-6.6-5.5-5.3 0-6.7 1.7-6.7 8v0.3c0 6.5 1.4 8 6.7 8 5.4 0 6.6-1.3 6.6-5.5l3.8 0.1c0 6.8-2.6 9-10.5 9-7.9-0.1-10.6-2.7-10.6-11.3z"/>
			<path class="s0" d="m317.6 202.7v-1c0-8.6 2.7-11.2 10.9-11.2 8.2 0 10.9 2.6 10.9 11.2v1c0 8.6-2.8 11.2-10.9 11.2-8.1 0-10.9-2.6-10.9-11.2zm17.8-0.4v-0.3c0-6.5-1.4-8-6.9-8-5.5 0-6.9 1.7-6.9 8v0.3c0 6.5 1.4 8 6.9 8 5.5 0 6.9-1.5 6.9-8z"/>
			<path class="s0" d="m348.6 209.2v-14.2c0-1.7 0-2.7 0-4.2h6.4l5.2 9.8c1.7 3.4 3.4 6.9 4.5 9.2h0.4c0-3.2-0.1-8-0.1-10.2 0-2.4 0-6.3 0-8.8h3.8c0 1.2 0 2.4 0 4.1v14.2c0 1.8 0 2.8 0 4.3h-6.1l-5.1-9.5c-1.8-3.5-3.6-6.8-5-9.5h-0.3c0 2.9 0.1 7.2 0.1 10.4 0 2.2 0 6 0 8.6h-3.8c0-1.5 0-2.4 0-4.2z"/>
			<path class="s0" d="m379.1 195c0-1.7 0-2.9 0-4.1h16.4v3.4c-2.2 0-5 0-8.3 0h-4.2v6.4h11.1v3.4c-2.1 0-7.4 0-9.4 0h-1.7v5.2c0 1.7 0 3 0 4.2h-3.9c0-1.2 0-2.5 0-4.2z"/>
			<path class="s0" d="m404.3 195c0-1.7 0-2.9 0-4.1h16.8v3.4c-2.2 0-7.1 0-10.1 0h-2.8v6h11.6v3.3c-1.8 0-6 0-8.6 0h-3v6.5h2.9c3.3 0 8.1 0 10.7 0v3.4h-17.4c0-1.2 0-2.5 0-4.2v-14.3z"/>
			<path class="s0" d="m430.8 195c0-1.7 0-2.9 0-4.1h11.9c5.6 0 7.8 1.7 7.8 7v0.1c0 3.7-1.2 5.9-4.7 6.6q1.05 1.65 2.1 3.6c1 1.7 2.1 3.5 3.2 5.2h-4.6c-0.7-1.2-1.5-2.6-2.3-3.9l-2.5-4.2h-7v3.9c0 1.7 0 3 0 4.2h-3.9c0-1.2 0-2.5 0-4.2zm3.8-0.8v7.7h7.6c3 0 4.1-1.1 4.1-3.9v-0.1c0-2.8-1.1-3.7-4.1-3.7z"/>
			<path class="s0" d="m459.5 195c0-1.7 0-2.9 0-4.1h16.8v3.4c-2.2 0-7.1 0-10.1 0h-2.8v6h11.6v3.3c-1.8 0-6 0-8.6 0h-3v6.5h2.9c3.3 0 8.1 0 10.7 0v3.4h-17.4c0-1.2 0-2.5 0-4.2v-14.3z"/>
			<path class="s0" d="m486 209.2v-14.2c0-1.7 0-2.7 0-4.2h6.4l5.2 9.8c1.7 3.4 3.4 6.9 4.5 9.2h0.4c0-3.2-0.1-8-0.1-10.2 0-2.4 0-6.3 0-8.8h3.8c0 1.2 0 2.4 0 4.1v14.2c0 1.8 0 2.8 0 4.3h-6.2l-5.1-9.5c-1.8-3.5-3.6-6.8-5-9.5h-0.3c0 2.9 0.1 7.2 0.1 10.4 0 2.2 0 6 0 8.6h-3.8c0.1-1.5 0.1-2.4 0.1-4.2z"/>
			<path class="s0" d="m515.3 202.7v-1c0-8.6 2.7-11.2 10.6-11.2 7.9 0 10.5 2.2 10.5 9l-3.8 0.1c0-4.3-1.2-5.5-6.6-5.5-5.3 0-6.7 1.7-6.7 8v0.3c0 6.5 1.4 8 6.7 8 5.4 0 6.6-1.3 6.6-5.5l3.8 0.1c0 6.8-2.6 9-10.5 9-7.9-0.1-10.6-2.7-10.6-11.3z"/>
			<path class="s0" d="m545.5 195c0-1.7 0-2.9 0-4.1h16.8v3.4c-2.2 0-7.1 0-10.1 0h-2.8v6h11.6v3.3c-1.8 0-6 0-8.6 0h-3v6.5h2.9c3.3 0 8.1 0 10.7 0v3.4h-17.4c0-1.2 0-2.5 0-4.2v-14.3z"/>
		</g>
		<g>
			<path class="s0" d="m30.9 66h151v151h-151z"/>
			<path class="s0" d="m63.8 33h151v151h-151z"/>
			<path class="s1" d="m63.8 66h118.1v118h-44.9v-43.7l-76.6 76.7h-29.5v-34.7l73.5-73.5h-40.6z"/>
		</g>
	</g>
</svg>

<svg width="600" height="250" viewBox="0 0 600 250" fill="none" xmlns="http://www.w3.org/2000/svg">
<path d="M306.001 172.9C333.501 172.9 352.301 161.2 365.201 143.6L335.301 119.1C328.301 128.1 320.201 133.1 310.201 133.1C298.801 133.1 289.901 124.9 289.901 110.1C289.901 91.7001 302.401 73.3001 321.801 73.3001C331.601 73.3001 339.201 78.6001 341.901 89.6001L380.501 72.2001C375.101 48.4001 355.401 33.1001 327.501 33.1001C271.801 33.1001 244.601 77.5001 244.601 114.2C244.701 150.1 269.801 172.9 306.001 172.9Z" fill="url(#paint0_linear_540_520)"/>
<path d="M361.501 172.9H410.001L395.501 133.1L361.501 172.9Z" fill="url(#paint1_linear_540_520)"/>
<path d="M397.101 33L409.601 69.2L438.601 33H397.101Z" fill="url(#paint2_linear_540_520)"/>
<path d="M502.3 33C499.4 33 496.5 33.2 493.6 33.5L467.3 61.6L429.2 102.3L456.1 165.3L458.6 171.2H469.8L469.3 170.3C476 172.1 482.9 172.9 489.9 172.9C535.1 172.9 569.1 135.6 569.1 94C569.1 59.5 541.9 33 502.3 33ZM493 133.3C476.9 133.3 468.2 122.2 468.2 107.9C468.2 91 480.3 72.5 499.1 72.5C515.2 72.5 523.9 83.7 523.9 97.9C524 114.9 511.9 133.3 493 133.3Z" fill="url(#paint3_linear_540_520)"/>
<path d="M207 213.4V208.3C207 204.3 208 202.9 215.7 201.8C220.7 201.1 221.5 200.1 221.5 197.5V197.4C221.5 194.7 220.5 193.7 216.2 193.7C212.1 193.7 210.9 194.7 210.9 197.3V198.2L207.1 198.1V197.5C207 192.3 209 190.3 216.2 190.3C223.3 190.3 225.4 192.1 225.4 197.3V197.4C225.4 202.3 223.8 204 216.5 205C211.4 205.7 210.8 206.3 210.8 208.5V210H219.3C221.8 210 224.1 210 225.4 210V213.3H207V213.4Z" fill="url(#paint4_linear_540_520)"/>
<path d="M238.5 209.1V213.4H234V209.1H238.5Z" fill="url(#paint5_linear_540_520)"/>
<path d="M246.3 202.7V201.7C246.3 193.1 249 190.5 256.6 190.5C264.3 190.5 266.9 193.1 266.9 201.7V202.7C266.9 211.3 264.2 213.9 256.6 213.9C249 213.9 246.3 211.3 246.3 202.7ZM263 202.3V202C263 195.7 261.5 193.9 256.6 193.9C251.7 193.9 250.2 195.7 250.2 202V202.3C250.2 208.8 251.7 210.4 256.6 210.4C261.6 210.4 263 208.8 263 202.3Z" fill="url(#paint6_linear_540_520)"/>
<path d="M288.6 202.7V201.7C288.6 193.1 291.3 190.5 299.2 190.5C307.1 190.5 309.7 192.7 309.7 199.5L305.9 199.6C305.9 195.3 304.7 194.1 299.3 194.1C294 194.1 292.6 195.8 292.6 202.1V202.4C292.6 208.9 294 210.4 299.3 210.4C304.7 210.4 305.9 209.1 305.9 204.9L309.7 205C309.7 211.8 307.1 214 299.2 214C291.3 213.9 288.6 211.3 288.6 202.7Z" fill="url(#paint7_linear_540_520)"/>
<path d="M317.6 202.7V201.7C317.6 193.1 320.3 190.5 328.5 190.5C336.7 190.5 339.4 193.1 339.4 201.7V202.7C339.4 211.3 336.6 213.9 328.5 213.9C320.4 213.9 317.6 211.3 317.6 202.7ZM335.4 202.3V202C335.4 195.5 334 194 328.5 194C323 194 321.6 195.7 321.6 202V202.3C321.6 208.8 323 210.3 328.5 210.3C334 210.3 335.4 208.8 335.4 202.3Z" fill="url(#paint8_linear_540_520)"/>
<path d="M348.6 209.2V195C348.6 193.3 348.6 192.3 348.6 190.8H355L360.2 200.6C361.9 204 363.6 207.5 364.7 209.8H365.1C365.1 206.6 365 201.8 365 199.6C365 197.2 365 193.3 365 190.8H368.8C368.8 192 368.8 193.2 368.8 194.9V209.1C368.8 210.9 368.8 211.9 368.8 213.4H362.7L357.6 203.9C355.8 200.4 354 197.1 352.6 194.4H352.3C352.3 197.3 352.4 201.6 352.4 204.8C352.4 207 352.4 210.8 352.4 213.4H348.6C348.6 211.9 348.6 211 348.6 209.2Z" fill="url(#paint9_linear_540_520)"/>
<path d="M379.1 195C379.1 193.3 379.1 192.1 379.1 190.9H395.5V194.3C393.3 194.3 390.5 194.3 387.2 194.3H383V200.7H394.1V204.1C392 204.1 386.7 204.1 384.7 204.1H383V209.3C383 211 383 212.3 383 213.5H379.1C379.1 212.3 379.1 211 379.1 209.3V195Z" fill="url(#paint10_linear_540_520)"/>
<path d="M404.3 195C404.3 193.3 404.3 192.1 404.3 190.9H421.1V194.3C418.9 194.3 414 194.3 411 194.3H408.2V200.3H419.8V203.6C418 203.6 413.8 203.6 411.2 203.6H408.2V210.1H411.1C414.4 210.1 419.2 210.1 421.8 210.1V213.5H404.4C404.4 212.3 404.4 211 404.4 209.3V195H404.3Z" fill="url(#paint11_linear_540_520)"/>
<path d="M430.8 195C430.8 193.3 430.8 192.1 430.8 190.9H442.7C448.3 190.9 450.5 192.6 450.5 197.9V198C450.5 201.7 449.3 203.9 445.8 204.6C446.5 205.7 447.2 206.9 447.9 208.2C448.9 209.9 450 211.7 451.1 213.4H446.5C445.8 212.2 445 210.8 444.2 209.5L441.7 205.3H434.7V209.2C434.7 210.9 434.7 212.2 434.7 213.4H430.8C430.8 212.2 430.8 210.9 430.8 209.2V195ZM434.6 194.2V201.9H442.2C445.2 201.9 446.3 200.8 446.3 198V197.9C446.3 195.1 445.2 194.2 442.2 194.2H434.6Z" fill="url(#paint12_linear_540_520)"/>
<path d="M459.5 195C459.5 193.3 459.5 192.1 459.5 190.9H476.3V194.3C474.1 194.3 469.2 194.3 466.2 194.3H463.4V200.3H475V203.6C473.2 203.6 469 203.6 466.4 203.6H463.4V210.1H466.3C469.6 210.1 474.4 210.1 477 210.1V213.5H459.6C459.6 212.3 459.6 211 459.6 209.3V195H459.5Z" fill="url(#paint13_linear_540_520)"/>
<path d="M486 209.2V195C486 193.3 486 192.3 486 190.8H492.4L497.6 200.6C499.3 204 501 207.5 502.1 209.8H502.5C502.5 206.6 502.4 201.8 502.4 199.6C502.4 197.2 502.4 193.3 502.4 190.8H506.2C506.2 192 506.2 193.2 506.2 194.9V209.1C506.2 210.9 506.2 211.9 506.2 213.4H500L494.9 203.9C493.1 200.4 491.3 197.1 489.9 194.4H489.6C489.6 197.3 489.7 201.6 489.7 204.8C489.7 207 489.7 210.8 489.7 213.4H485.9C486 211.9 486 211 486 209.2Z" fill="url(#paint14_linear_540_520)"/>
<path d="M515.3 202.7V201.7C515.3 193.1 518 190.5 525.9 190.5C533.8 190.5 536.4 192.7 536.4 199.5L532.6 199.6C532.6 195.3 531.4 194.1 526 194.1C520.7 194.1 519.3 195.8 519.3 202.1V202.4C519.3 208.9 520.7 210.4 526 210.4C531.4 210.4 532.6 209.1 532.6 204.9L536.4 205C536.4 211.8 533.8 214 525.9 214C518 213.9 515.3 211.3 515.3 202.7Z" fill="url(#paint15_linear_540_520)"/>
<path d="M545.5 195C545.5 193.3 545.5 192.1 545.5 190.9H562.3V194.3C560.1 194.3 555.2 194.3 552.2 194.3H549.4V200.3H561V203.6C559.2 203.6 555 203.6 552.4 203.6H549.4V210.1H552.3C555.6 210.1 560.4 210.1 563 210.1V213.5H545.6C545.6 212.3 545.6 211 545.6 209.3V195H545.5Z" fill="url(#paint16_linear_540_520)"/>
<path d="M214.801 184H181.9V217H60.4004L137 140.3V184H181.9V66H63.8008V108.8H104.4L30.9004 182.3V66H63.8008V33H214.801V184Z" fill="url(#paint17_linear_540_520)"/>
<defs>
<linearGradient id="paint0_linear_540_520" x1="237.858" y1="81.0657" x2="448.078" y2="87.1449" gradientUnits="userSpaceOnUse">
<stop stop-color="#540D6E"/>
<stop offset="1" stop-color="#080357"/>
</linearGradient>
<linearGradient id="paint1_linear_540_520" x1="359.095" y1="146.756" x2="434.082" y2="149.474" gradientUnits="userSpaceOnUse">
<stop stop-color="#540D6E"/>
<stop offset="1" stop-color="#080357"/>
</linearGradient>
<linearGradient id="paint2_linear_540_520" x1="395.041" y1="45.4203" x2="459.216" y2="47.6088" gradientUnits="userSpaceOnUse">
<stop stop-color="#540D6E"/>
<stop offset="1" stop-color="#080357"/>
</linearGradient>
<linearGradient id="paint3_linear_540_520" x1="422.259" y1="81" x2="638.656" y2="87.4373" gradientUnits="userSpaceOnUse">
<stop stop-color="#540D6E"/>
<stop offset="1" stop-color="#080357"/>
</linearGradient>
<linearGradient id="paint4_linear_540_520" x1="207" y1="201.85" x2="225.4" y2="201.85" gradientUnits="userSpaceOnUse">
<stop stop-color="#540D6E"/>
<stop offset="1" stop-color="#080357"/>
</linearGradient>
<linearGradient id="paint5_linear_540_520" x1="234" y1="211.25" x2="238.5" y2="211.25" gradientUnits="userSpaceOnUse">
<stop stop-color="#540D6E"/>
<stop offset="1" stop-color="#080357"/>
</linearGradient>
<linearGradient id="paint6_linear_540_520" x1="246.3" y1="202.2" x2="266.9" y2="202.2" gradientUnits="userSpaceOnUse">
<stop stop-color="#540D6E"/>
<stop offset="1" stop-color="#080357"/>
</linearGradient>
<linearGradient id="paint7_linear_540_520" x1="288.6" y1="202.25" x2="309.7" y2="202.25" gradientUnits="userSpaceOnUse">
<stop stop-color="#540D6E"/>
<stop offset="1" stop-color="#080357"/>
</linearGradient>
<linearGradient id="paint8_linear_540_520" x1="317.6" y1="202.2" x2="339.4" y2="202.2" gradientUnits="userSpaceOnUse">
<stop stop-color="#540D6E"/>
<stop offset="1" stop-color="#080357"/>
</linearGradient>
<linearGradient id="paint9_linear_540_520" x1="348.6" y1="202.1" x2="368.8" y2="202.1" gradientUnits="userSpaceOnUse">
<stop stop-color="#540D6E"/>
<stop offset="1" stop-color="#080357"/>
</linearGradient>
<linearGradient id="paint10_linear_540_520" x1="379.1" y1="202.2" x2="395.5" y2="202.2" gradientUnits="userSpaceOnUse">
<stop stop-color="#540D6E"/>
<stop offset="1" stop-color="#080357"/>
</linearGradient>
<linearGradient id="paint11_linear_540_520" x1="404.3" y1="202.2" x2="421.8" y2="202.2" gradientUnits="userSpaceOnUse">
<stop stop-color="#540D6E"/>
<stop offset="1" stop-color="#080357"/>
</linearGradient>
<linearGradient id="paint12_linear_540_520" x1="430.8" y1="202.15" x2="451.1" y2="202.15" gradientUnits="userSpaceOnUse">
<stop stop-color="#540D6E"/>
<stop offset="1" stop-color="#080357"/>
</linearGradient>
<linearGradient id="paint13_linear_540_520" x1="459.5" y1="202.2" x2="477" y2="202.2" gradientUnits="userSpaceOnUse">
<stop stop-color="#540D6E"/>
<stop offset="1" stop-color="#080357"/>
</linearGradient>
<linearGradient id="paint14_linear_540_520" x1="485.9" y1="202.1" x2="506.2" y2="202.1" gradientUnits="userSpaceOnUse">
<stop stop-color="#540D6E"/>
<stop offset="1" stop-color="#080357"/>
</linearGradient>
<linearGradient id="paint15_linear_540_520" x1="515.3" y1="202.25" x2="536.4" y2="202.25" gradientUnits="userSpaceOnUse">
<stop stop-color="#540D6E"/>
<stop offset="1" stop-color="#080357"/>
</linearGradient>
<linearGradient id="paint16_linear_540_520" x1="545.5" y1="202.2" x2="563" y2="202.2" gradientUnits="userSpaceOnUse">
<stop stop-color="#540D6E"/>
<stop offset="1" stop-color="#080357"/>
</linearGradient>
<linearGradient id="paint17_linear_540_520" x1="139.301" y1="33" x2="139.301" y2="184" gradientUnits="userSpaceOnUse">
<stop stop-color="#540D6E"/>
<stop offset="1" stop-color="#080357"/>
</linearGradient>
</defs>
</svg>
